symbols/web/view_array/materialsymbolsrounded/view_array_wght200grad200fill1_20px.svg

<svg xmlns="http://www.w3.org/2000/svg" height="20" width="20"><path d="M16.021 14.75q-.396 0-.677-.281-.282-.281-.282-.677V5.333q0-.395.282-.677.281-.281.677-.281h.396q.395 0 .677.281.281.282.281.677v8.459q0 .396-.281.677-.282.281-.677.281Zm-8.375 0q-.396 0-.677-.281t-.281-.677V5.333q0-.395.281-.677.281-.281.677-.281h4.708q.396 0 .677.281.281.282.281.677v8.459q0 .396-.281.677t-.677.281Zm-4.063 0q-.395 0-.677-.281-.281-.281-.281-.677V5.333q0-.395.281-.677.282-.281.677-.281h.396q.396 0 .677.281.282.282.282.677v8.459q0 .396-.282.677-.281.281-.677.281Z"/></svg>

<svg xmlns="http://www.w3.org/2000/svg" height="20" width="20"><path d="M16.021 14.75Q15.625 14.75 15.344 14.469Q15.062 14.188 15.062 13.792V5.333Q15.062 4.938 15.344 4.656Q15.625 4.375 16.021 4.375H16.417Q16.812 4.375 17.094 4.656Q17.375 4.938 17.375 5.333V13.792Q17.375 14.188 17.094 14.469Q16.812 14.75 16.417 14.75ZM7.646 14.75Q7.25 14.75 6.969 14.469Q6.688 14.188 6.688 13.792V5.333Q6.688 4.938 6.969 4.656Q7.25 4.375 7.646 4.375H12.354Q12.75 4.375 13.031 4.656Q13.312 4.938 13.312 5.333V13.792Q13.312 14.188 13.031 14.469Q12.75 14.75 12.354 14.75ZM3.583 14.75Q3.188 14.75 2.906 14.469Q2.625 14.188 2.625 13.792V5.333Q2.625 4.938 2.906 4.656Q3.188 4.375 3.583 4.375H3.979Q4.375 4.375 4.656 4.656Q4.938 4.938 4.938 5.333V13.792Q4.938 14.188 4.656 14.469Q4.375 14.75 3.979 14.75Z"/></svg>
